assets/logo_full.svg

<?xml version="1.0" encoding="UTF-8" standalone="no"?>
<svg width="1323px" height="1024px" viewBox="0 0 1323 1024" version="1.1" xmlns="http://www.w3.org/2000/svg" xmlns:xlink="http://www.w3.org/1999/xlink">
    <!-- Generator: Sketch 3.8.3 (29802) - http://www.bohemiancoding.com/sketch -->
    <title>Orleans 1</title>
    <desc>Created with Sketch.</desc>
    <defs></defs>
    <g id="Page-1" stroke="none" stroke-width="1" fill="none" fill-rule="evenodd">
        <g id="Orleans-1">
            <g transform="translate(228.000000, 348.000000)">
                <path d="M337.257812,161.09375 C337.257812,150.593697 338.828109,141.781286 341.96875,134.65625 C344.312512,129.406224 347.511698,124.695333 351.566406,120.523438 C355.621114,116.351542 360.062476,113.257823 364.890625,111.242188 C371.312532,108.523424 378.718708,107.164062 387.109375,107.164062 C402.296951,107.164062 414.449173,111.874953 423.566406,121.296875 C432.683639,130.718797 437.242188,143.820229 437.242188,160.601562 C437.242188,177.242271 432.718795,190.261672 423.671875,199.660156 C414.624955,209.058641 402.531326,213.757812 387.390625,213.757812 C372.062423,213.757812 359.875045,209.082078 350.828125,199.730469 C341.781205,190.378859 337.257812,177.500082 337.257812,161.09375 L337.257812,161.09375 Z M358.703125,160.390625 C358.703125,172.062558 361.398411,180.910126 366.789062,186.933594 C372.179714,192.957061 379.023396,195.96875 387.320312,195.96875 C395.617229,195.96875 402.425755,192.980499 407.746094,187.003906 C413.066433,181.027314 415.726562,172.06256 415.726562,160.109375 C415.726562,148.296816 413.136745,139.484404 407.957031,133.671875 C402.777318,127.859346 395.89848,124.953125 387.320312,124.953125 C378.742145,124.953125 371.828151,127.894502 366.578125,133.777344 C361.328099,139.660186 358.703125,148.531191 358.703125,160.390625 L358.703125,160.390625 Z M472.257812,212 L452.5,212 L452.5,137.328125 L470.851562,137.328125 L470.851562,147.945312 C473.992203,142.929662 476.816394,139.625008 479.324219,138.03125 C481.832044,136.437492 484.679672,135.640625 487.867188,135.640625 C492.36721,135.640625 496.703104,136.8828 500.875,139.367188 L494.757812,156.59375 C491.429671,154.437489 488.335952,153.359375 485.476562,153.359375 C482.710924,153.359375 480.367197,154.121086 478.445312,155.644531 C476.523428,157.167976 475.011724,159.921855 473.910156,163.90625 C472.808588,167.890645 472.257812,176.234311 472.257812,188.9375 L472.257812,212 Z M509.382812,212 L509.382812,108.921875 L529.140625,108.921875 L529.140625,212 L509.382812,212 Z M592.632812,188.234375 L612.320312,191.539062 C609.78905,198.757849 605.792996,204.253887 600.332031,208.027344 C594.871066,211.8008 588.039104,213.6875 579.835938,213.6875 C566.851498,213.6875 557.242219,209.445355 551.007812,200.960938 C546.085913,194.164029 543.625,185.585989 543.625,175.226562 C543.625,162.851501 546.859343,153.160191 553.328125,146.152344 C559.796907,139.144496 567.976513,135.640625 577.867188,135.640625 C588.976618,135.640625 597.742155,139.308557 604.164062,146.644531 C610.58597,153.980505 613.656251,165.218674 613.375,180.359375 L563.875,180.359375 C564.015626,186.218779 565.60936,190.777327 568.65625,194.035156 C571.70314,197.292985 575.499977,198.921875 580.046875,198.921875 C583.14064,198.921875 585.742177,198.078133 587.851562,196.390625 C589.960948,194.703117 591.554682,191.984394 592.632812,188.234375 L592.632812,188.234375 Z M593.757812,168.265625 C593.617187,162.546846 592.140639,158.199234 589.328125,155.222656 C586.515611,152.246079 583.09377,150.757812 579.0625,150.757812 C574.749978,150.757812 571.187514,152.328109 568.375,155.46875 C565.562486,158.609391 564.179687,162.874973 564.226562,168.265625 L593.757812,168.265625 Z M644.242188,160.109375 L626.3125,156.875 C628.328135,149.656214 631.79685,144.312517 636.71875,140.84375 C641.64065,137.374983 648.953076,135.640625 658.65625,135.640625 C667.468794,135.640625 674.031228,136.683583 678.34375,138.769531 C682.656272,140.855479 685.691397,143.50389 687.449219,146.714844 C689.20704,149.925797 690.085938,155.82027 690.085938,164.398438 L689.875,187.460938 C689.875,194.02347 690.191403,198.863266 690.824219,201.980469 C691.457034,205.097672 692.640616,208.437482 694.375,212 L674.828125,212 C674.312497,210.687493 673.679691,208.7422 672.929688,206.164062 C672.601561,204.992182 672.367188,204.218752 672.226562,203.84375 C668.851546,207.125016 665.242207,209.585929 661.398438,211.226562 C657.554668,212.867196 653.453147,213.6875 649.09375,213.6875 C641.406212,213.6875 635.347678,211.601583 630.917969,207.429688 C626.488259,203.257792 624.273438,197.984407 624.273438,191.609375 C624.273438,187.390604 625.28124,183.628923 627.296875,180.324219 C629.31251,177.019515 632.136701,174.48829 635.769531,172.730469 C639.402362,170.972647 644.640591,169.437507 651.484375,168.125 C660.718796,166.390616 667.11717,164.773445 670.679688,163.273438 L670.679688,161.304688 C670.679688,157.507794 669.742197,154.800789 667.867188,153.183594 C665.992178,151.566398 662.453151,150.757812 657.25,150.757812 C653.734357,150.757812 650.992197,151.449212 649.023438,152.832031 C647.054678,154.214851 645.460944,156.640608 644.242188,160.109375 L644.242188,160.109375 Z M670.679688,176.140625 C668.148425,176.984379 664.140652,177.992182 658.65625,179.164062 C653.171848,180.335943 649.585946,181.484369 647.898438,182.609375 C645.3203,184.437509 644.03125,186.757798 644.03125,189.570312 C644.03125,192.335951 645.06249,194.726552 647.125,196.742188 C649.18751,198.757823 651.812484,199.765625 655,199.765625 C658.562518,199.765625 661.960921,198.593762 665.195312,196.25 C667.585949,194.468741 669.156246,192.289075 669.90625,189.710938 C670.421878,188.023429 670.679688,184.812524 670.679688,180.078125 L670.679688,176.140625 Z M777.484375,212 L757.726562,212 L757.726562,173.890625 C757.726562,165.828085 757.304692,160.613293 756.460938,158.246094 C755.617183,155.878894 754.246103,154.039069 752.347656,152.726562 C750.449209,151.414056 748.164076,150.757812 745.492188,150.757812 C742.070295,150.757812 739.000014,151.695303 736.28125,153.570312 C733.562486,155.445322 731.699224,157.929672 730.691406,161.023438 C729.683589,164.117203 729.179688,169.835896 729.179688,178.179688 L729.179688,212 L709.421875,212 L709.421875,137.328125 L727.773438,137.328125 L727.773438,148.296875 C734.289095,139.859333 742.492138,135.640625 752.382812,135.640625 C756.742209,135.640625 760.726544,136.425773 764.335938,137.996094 C767.945331,139.566414 770.675772,141.5703 772.527344,144.007812 C774.378916,146.445325 775.667965,149.210922 776.394531,152.304688 C777.121097,155.398453 777.484375,159.828096 777.484375,165.59375 L777.484375,212 Z M790.5625,190.695312 L810.390625,187.671875 C811.234379,191.515644 812.9453,194.433584 815.523438,196.425781 C818.101575,198.417979 821.710914,199.414062 826.351562,199.414062 C831.460963,199.414062 835.304675,198.476572 837.882812,196.601562 C839.617196,195.289056 840.484375,193.531261 840.484375,191.328125 C840.484375,189.828117 840.01563,188.585942 839.078125,187.601562 C838.093745,186.664058 835.890642,185.796879 832.46875,185 C816.53117,181.484357 806.429709,178.273452 802.164062,175.367188 C796.257783,171.335917 793.304688,165.734411 793.304688,158.5625 C793.304688,152.093718 795.859349,146.656272 800.96875,142.25 C806.078151,137.843728 813.999946,135.640625 824.734375,135.640625 C834.953176,135.640625 842.54685,137.304671 847.515625,140.632812 C852.4844,143.960954 855.906241,148.88278 857.78125,155.398438 L839.148438,158.84375 C838.351559,155.937485 836.839855,153.710945 834.613281,152.164062 C832.386708,150.61718 829.210958,149.84375 825.085938,149.84375 C819.882786,149.84375 816.156261,150.570305 813.90625,152.023438 C812.406242,153.054693 811.65625,154.390617 811.65625,156.03125 C811.65625,157.437507 812.312493,158.632808 813.625,159.617188 C815.406259,160.929694 821.558541,162.781238 832.082031,165.171875 C842.605521,167.562512 849.953104,170.49217 854.125,173.960938 C858.250021,177.47658 860.3125,182.374969 860.3125,188.65625 C860.3125,195.500034 857.453154,201.382788 851.734375,206.304688 C846.015596,211.226587 837.554744,213.6875 826.351562,213.6875 C816.179637,213.6875 808.128936,211.625021 802.199219,207.5 C796.269502,203.374979 792.390634,197.773473 790.5625,190.695312 L790.5625,190.695312 Z" id="Orleans" fill="#4A4A4A"></path>
                <path d="M142.461179,0 L284.922358,82.25 L284.922358,246.75 L142.461179,329 L9.59232693e-14,246.75 L7.10542736e-15,82.25 L142.461179,0 Z M141.973375,71 L222.946751,117.75 L222.946751,211.25 L141.973375,258 L61,211.25 L61,117.75 L141.973375,71 Z" id="Combined-Shape" fill="#68217A"></path>
                <polygon id="Path-1" fill="#783988" points="142 0 142 71.1171898 222.45988 117.896883 222.849037 211.348419 284.369995 246.834427 284.369995 82.2636871"></polygon>
                <polygon id="Path-1-Copy" fill="#783988" transform="translate(71.184998, 205.417213) rotate(-180.000000) translate(-71.184998, -205.417213) " points="0 82 0 153.11719 80.4598797 199.896883 80.8490372 293.348419 142.369995 328.834427 142.369995 164.263687"></polygon>
            </g>
        </g>
    </g>
</svg>

<?xml version="1.0" encoding="UTF-8" standalone="no"?>
<svg
   xmlns:dc="http://purl.org/dc/elements/1.1/"
   xmlns:cc="http://creativecommons.org/ns#"
   xmlns:rdf="http://www.w3.org/1999/02/22-rdf-syntax-ns#"
   xmlns:svg="http://www.w3.org/2000/svg"
   xmlns="http://www.w3.org/2000/svg"
   xmlns:sodipodi="http://sodipodi.sourceforge.net/DTD/sodipodi-0.dtd"
   xmlns:inkscape="http://www.inkscape.org/namespaces/inkscape"
   width="900"
   height="340"
   viewBox="0 0 900 340"
   version="1.1"
   id="svg3336"
   inkscape:version="0.91 r13725"
   sodipodi:docname="logo_full.svg"
   inkscape:export-filename="C:\tmp\orleans\logo.png"
   inkscape:export-xdpi="135.52942"
   inkscape:export-ydpi="135.52942">
  <metadata
     id="metadata3354">
    <rdf:RDF>
      <cc:Work
         rdf:about="">
        <dc:format>image/svg+xml</dc:format>
        <dc:type
           rdf:resource="http://purl.org/dc/dcmitype/StillImage" />
        <dc:title>Orleans</dc:title>
      </cc:Work>
    </rdf:RDF>
  </metadata>
  <sodipodi:namedview
     pagecolor="#ffffff"
     bordercolor="#666666"
     borderopacity="1"
     objecttolerance="10"
     gridtolerance="10"
     guidetolerance="10"
     inkscape:pageopacity="0"
     inkscape:pageshadow="2"
     inkscape:window-width="1920"
     inkscape:window-height="1147"
     id="namedview3352"
     showgrid="false"
     inkscape:zoom="0.95507812"
     inkscape:cx="48.968303"
     inkscape:cy="-14.474438"
     inkscape:window-x="3832"
     inkscape:window-y="-8"
     inkscape:window-maximized="1"
     inkscape:current-layer="Orleans-1"
     fit-margin-top="0"
     fit-margin-left="0"
     fit-margin-right="0"
     fit-margin-bottom="0" />
  <!-- Generator: Sketch 3.8.3 (29802) - http://www.bohemiancoding.com/sketch -->
  <title
     id="title3338">Orleans</title>
  <desc
     id="desc3340">Created with Sketch.</desc>
  <defs
     id="defs3342" />
  <g
     id="Page-1"
     style="fill:none;fill-rule:evenodd;stroke:none;stroke-width:1"
     transform="translate(-228,-337)">
    <g
       id="Orleans-1">
      <g
         transform="translate(247.84375,342.5)"
         id="g3346">
        <path
           d="m 337.25781,161.09375 c 0,-10.50005 1.5703,-19.31246 4.71094,-26.4375 2.34376,-5.25003 5.54295,-9.96092 9.59766,-14.13281 4.0547,-4.1719 8.49607,-7.26562 13.32421,-9.28125 6.42191,-2.71877 13.82809,-4.07813 22.21875,-4.07813 15.18758,0 27.3398,4.71089 36.45704,14.13282 9.11723,9.42192 13.67578,22.52335 13.67578,39.30468 0,16.64071 -4.5234,29.66011 -13.57032,39.0586 -9.04692,9.39848 -21.14054,14.09765 -36.28125,14.09765 -15.3282,0 -27.51558,-4.67573 -36.5625,-14.02734 -9.04692,-9.35161 -13.57031,-22.23039 -13.57031,-38.63672 l 0,0 z m 21.44531,-0.70313 c 0,11.67194 2.69529,20.51951 8.08594,26.54297 5.39065,6.02347 12.23434,9.03516 20.53125,9.03516 8.29692,0 15.10544,-2.98825 20.42578,-8.96484 5.32034,-5.9766 7.98047,-14.94135 7.98047,-26.89454 0,-11.81255 -2.58981,-20.62497 -7.76953,-26.4375 -5.17971,-5.81252 -12.05855,-8.71874 -20.63672,-8.71874 -8.57817,0 -15.49216,2.94137 -20.74219,8.82421 -5.25002,5.88285 -7.875,14.75385 -7.875,26.61328 l 0,0 z M 472.25781,212 452.5,212 l 0,-74.67188 18.35156,0 0,10.61719 c 3.14064,-5.01565 5.96483,-8.3203 8.47266,-9.91406 2.50782,-1.59376 5.35545,-2.39063 8.54297,-2.39063 4.50002,0 8.83591,1.24218 13.00781,3.72657 l -6.11719,17.22656 c -3.32814,-2.15626 -6.42186,-3.23438 -9.28125,-3.23438 -2.76564,0 -5.10936,0.76172 -7.03125,2.28516 -1.92188,1.52345 -3.43359,4.27732 -4.53515,8.26172 -1.10157,3.98439 -1.65235,12.32806 -1.65235,25.03125 l 0,23.0625 z m 37.125,0 0,-103.07812 19.75781,0 0,103.07812 -19.75781,0 z m 83.25,-23.76563 19.6875,3.30469 c -2.53126,7.21879 -6.52731,12.71483 -11.98828,16.48828 -5.46096,3.77346 -12.29293,5.66016 -20.49609,5.66016 -12.98444,0 -22.59372,-4.24215 -28.82813,-12.72656 -4.9219,-6.79691 -7.38281,-15.37495 -7.38281,-25.73438 0,-12.37506 3.23434,-22.06637 9.70312,-29.07422 6.46879,-7.00784 14.64839,-10.51172 24.53907,-10.51172 11.10943,0 19.87497,3.66794 26.29687,11.00391 6.42191,7.33597 9.49219,18.57414 9.21094,33.71484 l -49.5,0 c 0.14063,5.85941 1.73436,10.41796 4.78125,13.67579 3.04689,3.25782 6.84373,4.88671 11.39062,4.88671 3.09377,0 5.69531,-0.84374 7.80469,-2.53125 2.10939,-1.6875 3.70312,-4.40623 4.78125,-8.15625 l 0,0 z m 1.125,-19.96875 c -0.14062,-5.71877 -1.61717,-10.06639 -4.42969,-13.04296 -2.81251,-2.97658 -6.23435,-4.46485 -10.26562,-4.46485 -4.31252,0 -7.87499,1.5703 -10.6875,4.71094 -2.81251,3.14064 -4.19531,7.40622 -4.14844,12.79687 l 29.53125,0 z m 50.48438,-8.15625 -17.92969,-3.23437 c 2.01563,-7.21879 5.48435,-12.56248 10.40625,-16.03125 4.9219,-3.46877 12.23433,-5.20313 21.9375,-5.20313 8.81254,0 15.37498,1.04296 19.6875,3.12891 4.31252,2.08595 7.34765,4.73436 9.10547,7.94531 1.75782,3.21096 2.63672,9.10543 2.63672,17.6836 l -0.21094,23.0625 c 0,6.56253 0.3164,11.40233 0.94922,14.51953 0.63281,3.1172 1.8164,6.45701 3.55078,10.01953 l -19.54688,0 c -0.51562,-1.31251 -1.14843,-3.2578 -1.89843,-5.83594 -0.32813,-1.17188 -0.5625,-1.94531 -0.70313,-2.32031 -3.37501,3.28127 -6.98435,5.74218 -10.82812,7.38281 -3.84377,1.64064 -7.94529,2.46094 -12.30469,2.46094 -7.68754,0 -13.74607,-2.08592 -18.17578,-6.25781 -4.42971,-4.1719 -6.64453,-9.44528 -6.64453,-15.82032 0,-4.21877 1.0078,-7.98045 3.02343,-11.28515 2.01564,-3.30471 4.83983,-5.83593 8.47266,-7.59375 3.63283,-1.75782 8.87106,-3.29296 15.71484,-4.60547 9.23443,-1.73438 15.6328,-3.35156 19.19532,-4.85156 l 0,-1.96875 c 0,-3.7969 -0.93749,-6.5039 -2.8125,-8.1211 -1.87501,-1.61719 -5.41404,-2.42578 -10.61719,-2.42578 -3.51564,0 -6.2578,0.6914 -8.22656,2.07422 -1.96876,1.38282 -3.5625,3.80858 -4.78125,7.27734 l 0,0 z m 26.4375,16.03125 c -2.53127,0.84376 -6.53904,1.85156 -12.02344,3.02344 -5.4844,1.17188 -9.0703,2.32031 -10.75781,3.44531 -2.57814,1.82814 -3.86719,4.14843 -3.86719,6.96094 0,2.76564 1.03124,5.15624 3.09375,7.17188 2.06251,2.01563 4.68748,3.02343 7.875,3.02343 3.56252,0 6.96092,-1.17186 10.19531,-3.51562 2.39064,-1.78126 3.96094,-3.96093 4.71094,-6.53906 0.51563,-1.68751 0.77344,-4.89842 0.77344,-9.63282 l 0,-3.9375 z M 777.48437,212 l -19.75781,0 0,-38.10938 c 0,-8.06254 -0.42187,-13.27733 -1.26562,-15.64453 -0.84376,-2.3672 -2.21484,-4.20702 -4.11328,-5.51953 -1.89845,-1.3125 -4.18358,-1.96875 -6.85547,-1.96875 -3.4219,0 -6.49218,0.93749 -9.21094,2.8125 -2.71876,1.87501 -4.58203,4.35936 -5.58984,7.45313 -1.00782,3.09376 -1.51172,8.81246 -1.51172,17.15625 l 0,33.82031 -19.75782,0 0,-74.67188 18.35157,0 0,10.96875 c 6.51565,-8.43754 14.7187,-12.65625 24.60937,-12.65625 4.3594,0 8.34373,0.78515 11.95313,2.35547 3.60939,1.57032 6.33983,3.57421 8.1914,6.01172 1.85158,2.43751 3.14062,5.20311 3.86719,8.29688 0.72657,3.09376 1.08984,7.52341 1.08984,13.28906 l 0,46.40625 z m 13.07813,-21.30469 19.82812,-3.02344 c 0.84376,3.84377 2.55468,6.76171 5.13282,8.75391 2.57814,1.9922 6.18747,2.98828 10.82812,2.98828 5.1094,0 8.95311,-0.93749 11.53125,-2.8125 1.73439,-1.3125 2.60156,-3.0703 2.60156,-5.27344 0,-1.5 -0.46874,-2.74218 -1.40625,-3.72656 -0.98437,-0.9375 -3.18748,-1.80468 -6.60937,-2.60156 -15.93758,-3.51564 -26.03904,-6.72655 -30.30469,-9.63281 -5.90628,-4.03127 -8.85937,-9.63278 -8.85937,-16.80469 0,-6.46878 2.55466,-11.90623 7.66406,-16.3125 5.1094,-4.40627 13.0312,-6.60938 23.76562,-6.60938 10.21881,0 17.81248,1.66405 22.78125,4.99219 4.96878,3.32814 8.39062,8.24997 10.26563,14.76563 l -18.63281,3.44531 c -0.79688,-2.90627 -2.30859,-5.13281 -4.53516,-6.67969 -2.22657,-1.54688 -5.40232,-2.32031 -9.52734,-2.32031 -5.20315,0 -8.92968,0.72655 -11.17969,2.17969 -1.50001,1.03125 -2.25,2.36718 -2.25,4.00781 0,1.40626 0.65624,2.60156 1.96875,3.58594 1.78126,1.3125 7.93354,3.16405 18.45703,5.55468 10.52349,2.39064 17.87107,5.3203 22.04297,8.78907 4.12502,3.51564 6.1875,8.41403 6.1875,14.69531 0,6.84378 -2.85935,12.72654 -8.57813,17.64844 -5.71877,4.9219 -14.17963,7.38281 -25.38281,7.38281 -10.17192,0 -18.22262,-2.06248 -24.15234,-6.1875 -5.92972,-4.12502 -9.80859,-9.72653 -11.63672,-16.80469 l 0,0 z"
           id="Orleans"
           inkscape:connector-curvature="0"
           style="fill:#4a4a4a" />
        <path
           d="m 142.46118,0 142.46118,82.25 0,164.5 L 142.46118,329 0,246.75 0,82.25 142.46118,0 Z m -0.48781,71 80.97338,46.75 0,93.5 L 141.97337,258 61,211.25 61,117.75 141.97337,71 Z"
           id="Combined-Shape"
           inkscape:connector-curvature="0"
           style="fill:#68217a" />
        <polygon
           id="Path-1"
           points="284.37,82.263687 142,0 142,71.11719 222.45988,117.89688 222.84904,211.34842 284.37,246.83443 "
           style="fill:#783988" />
        <polygon
           id="Path-1-Copy"
           transform="matrix(-1,0,0,-1,142.37,410.83443)"
           points="142.36999,164.26369 0,82 0,153.11719 80.45988,199.89688 80.849037,293.34842 142.36999,328.83443 "
           style="fill:#783988" />
      </g>
    </g>
  </g>
</svg>
